X:3377
T:La Calha
O:england
C:Trad 1, 17
M:3/8
L:1/8
K:G
D|G/F/GA|BGd|cd2|A2D|G/F/GA|BGd|cd2|A2c|\
B/A/BG|FDA|BG2|A2c|B/A/BG|FDA|BA2|G2:|


